src/static/smile-gradient.svg

<svg
  width="32"
  height="32"
  viewBox="0 0 32 32"
  fill="none"
  xmlns="http://www.w3.org/2000/svg"
>
  <path
    d="M12.4981 19.4393C12.1885 19.1641 11.7145 19.192 11.4393 19.5016C11.1641 19.8111 11.192 20.2852 11.5016 20.5604L12.4981 19.4393ZM20.4981 20.5604C20.8077 20.2852 20.8356 19.8111 20.5604 19.5016C20.2852 19.192 19.8111 19.1641 19.5016 19.4393L20.4981 20.5604ZM21.9165 13.3332C21.9165 13.6553 21.6553 13.9165 21.3332 13.9165V15.4165C22.4838 15.4165 23.4165 14.4838 23.4165 13.3332H21.9165ZM21.3332 13.9165C21.011 13.9165 20.7498 13.6553 20.7498 13.3332H19.2498C19.2498 14.4838 20.1826 15.4165 21.3332 15.4165V13.9165ZM20.7498 13.3332C20.7498 13.011 21.011 12.7498 21.3332 12.7498V11.2498C20.1826 11.2498 19.2498 12.1826 19.2498 13.3332H20.7498ZM21.3332 12.7498C21.6553 12.7498 21.9165 13.011 21.9165 13.3332H23.4165C23.4165 12.1826 22.4838 11.2498 21.3332 11.2498V12.7498ZM28.5832 15.9998C28.5832 22.9494 22.9494 28.5832 15.9998 28.5832V30.0832C23.7778 30.0832 30.0832 23.7778 30.0832 15.9998H28.5832ZM15.9998 28.5832C9.05025 28.5832 3.4165 22.9494 3.4165 15.9998H1.9165C1.9165 23.7778 8.22183 30.0832 15.9998 30.0832V28.5832ZM3.4165 15.9998C3.4165 9.05025 9.05025 3.4165 15.9998 3.4165V1.9165C8.22183 1.9165 1.9165 8.22183 1.9165 15.9998H3.4165ZM15.9998 3.4165C22.9494 3.4165 28.5832 9.05025 28.5832 15.9998H30.0832C30.0832 8.22183 23.7778 1.9165 15.9998 1.9165V3.4165ZM11.2498 13.3332C11.2498 13.6553 10.9887 13.9165 10.6665 13.9165V15.4165C11.8171 15.4165 12.7498 14.4838 12.7498 13.3332H11.2498ZM10.6665 13.9165C10.3443 13.9165 10.0832 13.6553 10.0832 13.3332H8.58317C8.58317 14.4838 9.51591 15.4165 10.6665 15.4165V13.9165ZM10.0832 13.3332C10.0832 13.011 10.3443 12.7498 10.6665 12.7498V11.2498C9.51591 11.2498 8.58317 12.1826 8.58317 13.3332H10.0832ZM10.6665 12.7498C10.9887 12.7498 11.2498 13.011 11.2498 13.3332H12.7498C12.7498 12.1826 11.8171 11.2498 10.6665 11.2498V12.7498ZM11.9998 19.9998C11.5016 20.5604 11.5018 20.5606 11.502 20.5608C11.5021 20.5609 11.5024 20.5611 11.5025 20.5613C11.5029 20.5616 11.5033 20.5619 11.5037 20.5623C11.5045 20.563 11.5053 20.5637 11.5063 20.5646C11.5083 20.5663 11.5106 20.5684 11.5134 20.5707C11.5188 20.5754 11.5257 20.5814 11.5342 20.5885C11.5511 20.6027 11.5739 20.6216 11.6027 20.6444C11.6601 20.69 11.7412 20.7517 11.845 20.8238C12.0522 20.968 12.3515 21.1554 12.7351 21.3414C13.5023 21.7133 14.6141 22.0832 15.9998 22.0832V20.5832C14.8856 20.5832 13.9973 20.2863 13.3895 19.9916C13.0856 19.8443 12.8537 19.6983 12.7016 19.5925C12.6256 19.5397 12.57 19.4971 12.5357 19.4699C12.5185 19.4562 12.5067 19.4464 12.5004 19.4411C12.4972 19.4385 12.4955 19.4369 12.4951 19.4366C12.4949 19.4364 12.495 19.4366 12.4955 19.437C12.4958 19.4372 12.4961 19.4375 12.4966 19.4379C12.4968 19.4381 12.497 19.4383 12.4973 19.4385C12.4974 19.4386 12.4976 19.4388 12.4977 19.4389C12.4979 19.4391 12.4981 19.4393 11.9998 19.9998ZM15.9998 22.0832C17.3856 22.0832 18.4973 21.7133 19.2645 21.3414C19.6481 21.1554 19.9474 20.968 20.1547 20.8238C20.2584 20.7517 20.3395 20.69 20.397 20.6444C20.4257 20.6216 20.4486 20.6027 20.4655 20.5885C20.4739 20.5814 20.4809 20.5754 20.4863 20.5707C20.489 20.5684 20.4914 20.5663 20.4933 20.5646C20.4943 20.5637 20.4952 20.563 20.496 20.5623C20.4964 20.5619 20.4968 20.5616 20.4971 20.5613C20.4973 20.5611 20.4976 20.5609 20.4976 20.5608C20.4979 20.5606 20.4981 20.5604 19.9998 19.9998C19.5016 19.4393 19.5018 19.4391 19.502 19.4389C19.5021 19.4388 19.5023 19.4386 19.5024 19.4385C19.5027 19.4383 19.5029 19.4381 19.5031 19.4379C19.5035 19.4375 19.5039 19.4372 19.5041 19.437C19.5046 19.4366 19.5048 19.4364 19.5046 19.4366C19.5042 19.4369 19.5024 19.4385 19.4993 19.4411C19.493 19.4464 19.4812 19.4562 19.464 19.4699C19.4297 19.4971 19.374 19.5397 19.2981 19.5925C19.146 19.6983 18.914 19.8443 18.6101 19.9916C18.0023 20.2863 17.1141 20.5832 15.9998 20.5832V22.0832Z"
    fill="url(#paint0_linear_9620_81625)"
  />
  <defs>
    <linearGradient
      id="paint0_linear_9620_81625"
      x1="2.6665"
      y1="13.8519"
      x2="29.3332"
      y2="13.8519"
      gradientUnits="userSpaceOnUse"
    >
      <stop stop-color="#FF6848" />
      <stop
        offset="1"
        stop-color="#4940E0"
      />
    </linearGradient>
  </defs>
</svg>

<svg xmlns="http://www.w3.org/2000/svg" width="32" height="32" fill="none"><path fill="url(#a)" d="M12.498 19.44a.75.75 0 1 0-.996 1.12l.996-1.12Zm8 1.12a.75.75 0 1 0-.996-1.12l.996 1.12Zm1.418-7.227a.583.583 0 0 1-.583.583v1.5c1.15 0 2.084-.932 2.084-2.083h-1.5Zm-.583.583a.583.583 0 0 1-.583-.583h-1.5c0 1.15.933 2.083 2.083 2.083v-1.5Zm-.583-.583c0-.322.261-.583.583-.583v-1.5c-1.15 0-2.083.933-2.083 2.083h1.5Zm.583-.583c.322 0 .584.261.584.583h1.5c0-1.15-.933-2.083-2.084-2.083v1.5Zm7.25 3.25c0 6.95-5.634 12.583-12.583 12.583v1.5c7.778 0 14.083-6.305 14.083-14.083h-1.5ZM16 28.583C9.05 28.583 3.416 22.95 3.416 16h-1.5c0 7.778 6.306 14.083 14.084 14.083v-1.5ZM3.416 16C3.416 9.05 9.05 3.416 16 3.416v-1.5C8.222 1.917 1.916 8.223 1.916 16h1.5ZM16 3.416c6.95 0 12.583 5.634 12.583 12.584h1.5c0-7.778-6.305-14.084-14.083-14.084v1.5Zm-4.75 9.917a.583.583 0 0 1-.584.583v1.5c1.151 0 2.084-.932 2.084-2.083h-1.5Zm-.584.583a.583.583 0 0 1-.583-.583h-1.5c0 1.15.933 2.083 2.083 2.083v-1.5Zm-.583-.583c0-.322.261-.583.583-.583v-1.5c-1.15 0-2.083.933-2.083 2.083h1.5Zm.583-.583c.323 0 .584.261.584.583h1.5c0-1.15-.933-2.083-2.084-2.083v1.5ZM12 20l-.498.56v.001l.002.001.002.003.007.006a1.285 1.285 0 0 0 .09.073c.057.046.138.108.242.18.207.144.506.331.89.517a7.471 7.471 0 0 0 3.265.742v-1.5a5.97 5.97 0 0 1-2.61-.591 5.134 5.134 0 0 1-.688-.4 3.276 3.276 0 0 1-.202-.15l-.005-.005h.002v.002l-.497.56Zm4 2.083c1.386 0 2.497-.37 3.265-.742.383-.186.682-.373.89-.517a4.808 4.808 0 0 0 .338-.26l.003-.002h.001v-.001L20 20l-.498-.561.001-.001.001-.001-.005.004a3.323 3.323 0 0 1-.201.151 5.136 5.136 0 0 1-.688.4 5.97 5.97 0 0 1-2.61.591v1.5Z"/><defs><linearGradient id="a" x1="2.667" x2="29.333" y1="13.852" y2="13.852" gradientUnits="userSpaceOnUse"><stop stop-color="#FF6848"/><stop offset="1" stop-color="#4940E0"/></linearGradient></defs></svg>
